Gruvbox-Plus-Dark/actions/16/kdenlive-zoom-small.svg

<svg xmlns="http://www.w3.org/2000/svg" width="16" height="16" viewBox="0 0 16 16">
 <defs>
  <style id="current-color-scheme" type="text/css">
   .ColorScheme-Text { color:#ebdbb2; } .ColorScheme-Highlight { color:#458588; }
  </style>
 </defs>
 <path style="fill:currentColor" class="ColorScheme-Text" d="M 2 2.0039062 C 1 2.0039062 1 3.0039062 1 3.0039062 L 1 7.0039062 L 3 7.0039062 L 3 4.0039062 L 5.9921875 4.0039062 L 7.9902344 8 C 7.9902344 8 9.9902344 3.96397 9.9902344 4 L 6 4 L 6 2.0039062 L 2 2.0039062 z M 7.9902344 8 L 5.9902344 12 L 9.9902344 12 L 7.9902344 8 z M 10 2.0039062 L 10 4.0039062 L 13 4.0039062 L 13 7.0039062 L 15 7.0039062 L 15 3.0039062 C 15 2.0039062 14 2.0039062 14 2.0039062 L 10 2.0039062 z M 1 9.0039062 L 1 13.003906 C 1 14.003906 2 14.003906 2 14.003906 L 6 14.003906 L 6 12.003906 L 3 12.003906 L 3 9.0039062 L 1 9.0039062 z M 13 9.0039062 L 13 12.003906 L 10 12.003906 L 10 14.003906 L 14 14.003906 C 14 14.003906 15 14.003906 15 13.003906 L 15 9.0039062 L 13 9.0039062 z"/>
</svg>

<svg width="16" height="16" version="1.1" viewBox="0 0 16 16" xmlns="http://www.w3.org/2000/svg">
  <defs>
    <style type="text/css">.ColorScheme-Text { color:#ebdbb2; } .ColorScheme-Highlight { color:#458588; }</style>
  </defs>
  <path class="ColorScheme-Text" d="m2 2.004c-1 0-1 1-1 1v4h2v-3h2.992l1.998 3.996s2-4.036 2-4h-3.99v-1.996h-4zm5.99 5.996-2 4h4l-2-4zm2.01-5.996v2h3v3h2v-4c0-1-1-1-1-1h-4zm-9 7v4c0 1 1 1 1 1h4v-2h-3v-3h-2zm12 0v3h-3v2h4s1 0 1-1v-4h-2z" fill="currentColor"/>
</svg>
